!!!OTL: Huainian
!!!ARE: Asia, China,ÿHebei Dingxian
!! IV, 14
!!!SCT: C1911
!!!YEM: Copyright 1995, estate of Helmut Schaffrath.
**kern
*ICvox
*Ivox
*M2/4
*k[b-]
*F:
{4f
8g
8f
=1
4d
4c
=2
4f
8a
8e
=3
8d
4.c}
=4
{4cc
4ff
=5
8dd
8ff
4cc
=6
4ff
8dd
8ff
=7
2cc}
=8
{4cc
8a
8cc
=9
4ff
8dd
8cc
=10
8cc
8g
8cc
16a
16g
=11
8f
8d
4f}
=12
{4cc
8ff
8dd
=13
8cc
8a
4a
=14
4g
8a
8g
=15
2f}
=16
{8.cc
16dd
8cc
8a
=17
8g
8a
8cc
16a
16g
=18
4f
8g
8a
=19
4d
4c
=20
8cc
8cc
8a
16a
16g
=21
8f
8d
8f
16g
16a
=22
[2c
=23
2c]}
=24
{8.cc
8dd
16cc
8a
=25
8g
8a
8cc
16a
16g
=26
4f
8g
8a
=27
4d
4c}
=28
{8cc
8cc
8a
8g
=29
8f
8d
8f
16g
16a
=30
[2c
=31
2c]}
==
!!!AGN: Xiaodiao, Dongbing
!!!AMT: simple duple
!!!AIN: vox
!!!EED: Helmut Schaffrath
!!!EEV: 1.0
*-
!!!ONB: Tied note syntax fixed by Craig Sapp, 2004/05/03/
